X:1
T: Bonanza
T: 1st setting
R:Reel
Q: 232
K:D
M:4/4
L:1/8
|:d2 df ((3efg) fa|g2 ga gf eg|fa fd Bg ec|dc db aA Bc|
dc df ed eg|fe fa gf gb|af df eg ce|1d2 f2 dA Bc:|2d2 f2 d2 ef|
|:ge ce Ac eg|fd Ad FA df|ed ge ce Ac|dc df a2 gf|
g1/2a1/2b eg Ac eg|fa fd FA df|eg ce EA ce|1d2 f2 d2 ef:|2d2 f2 d4||
